static/img/article-icons/html.svg

<?xml version="1.0" standalone="no"?><!-- Generator: Gravit.io --><svg xmlns="http://www.w3.org/2000/svg" xmlns:xlink="http://www.w3.org/1999/xlink" style="isolation:isolate" viewBox="66.139 1.982 25.47 30" width="25.47" height="30"><g><path d=" M 66.139 1.982 L 91.609 1.982 L 88.614 28.384 L 78.875 31.982 L 68.537 28.384 L 66.139 1.982 Z " fill="rgb(224,8,115)"/><path d=" M 78.847 4.668 L 89.329 4.668 L 86.87 26.343 L 78.875 29.297 L 78.847 29.287 L 78.847 4.668 Z " fill="rgb(255,28,118)"/><path d=" M 86.562 11.196 L 86.797 8.059 L 70.951 8.026 L 71.741 17.783 L 83.19 17.862 L 82.879 21.757 L 79.269 22.881 L 75.191 21.861 L 74.927 19.371 L 71.898 19.273 L 72.33 24.407 L 78.877 25.939 L 85.583 23.824 L 86.219 14.865 L 74.397 14.918 L 74.329 11.196 L 86.562 11.196 Z " fill="rgb(255,255,255)"/></g></svg>

<svg xmlns="http://www.w3.org/2000/svg" style="isolation:isolate" viewBox="66.1 2 25.5 30" width="25.5" height="30"><path d="M66.1 2h25.5l-3 26.4L79 32l-10.4-3.6L66.1 2z" fill="#E00873"/><path d="M78.8 4.7h10.5L87 26.3l-8 3V4.7z" fill="#FF1C76"/><path d="M86.6 11.2l.2-3.1H71l.7 9.7h11.5l-.3 4-3.6 1-4.1-1-.3-2.4-3-.1.4 5.1L79 26l6.7-2 .6-9H74.4v-3.7h12.2z" fill="#FFF"/></svg>
